build/img/socials.svg

<?xml version="1.0" encoding="UTF-8"?>
<svg width="100px" height="34px" viewBox="0 0 100 34" version="1.1" xmlns="http://www.w3.org/2000/svg" xmlns:xlink="http://www.w3.org/1999/xlink">
    <!-- Generator: Sketch 49.3 (51167) - http://www.bohemiancoding.com/sketch -->
    <title>Group 8</title>
    <desc>Created with Sketch.</desc>
    <defs></defs>
    <g id="Page-1" stroke="none" stroke-width="1" fill="none" fill-rule="evenodd">
        <g id="OnPlace-KOREA" transform="translate(-1792.000000, -1042.000000)" fill="#1E9DF2" fill-rule="nonzero">
            <g id="Group-8" transform="translate(1792.000000, 1042.000000)">
                <path d="M100,4.90417962 C98.5287218,5.56693645 96.948456,6.01497468 95.2869527,6.21636072 C96.9826669,5.18556096 98.2817258,3.55210838 98.895085,1.60802885 C97.2842944,2.57923965 95.5214292,3.2629715 93.6830677,3.6295232 C92.1870052,2.01069341 90.0536464,1 87.6934157,1 C83.1630735,1 79.4889556,4.72827596 79.4889556,9.32994155 C79.4889556,9.98194632 79.5612962,10.618038 79.7003638,11.2287549 C72.8805427,10.8808183 66.8343316,7.56456122 62.7872837,2.52550193 C62.0806126,3.75618243 61.6761197,5.18706625 61.6761197,6.7137509 C61.6761197,9.60336637 63.1249437,12.1528943 65.3264064,13.6463551 C64.023177,13.6053589 62.748549,13.2482602 61.6090749,12.6049108 L61.6090749,12.7101734 C61.6090749,16.7464958 64.4371362,20.1121049 68.1912206,20.8775438 C67.501602,21.0693605 66.7778784,21.1695697 66.0291587,21.1695697 C65.4997908,21.1695697 64.9862044,21.1187125 64.4844807,21.0229117 C65.5287059,24.3312122 68.5591726,26.7393506 72.1488754,26.8074111 C69.3405144,29.0422263 65.8018631,30.3744062 61.9584915,30.3744062 C61.296517,30.3744062 60.6422742,30.334301 60,30.2557035 C63.6319633,32.6198659 67.9443306,34 72.5784705,34 C87.6710675,34 95.9253081,21.306981 95.9253081,10.2994546 C95.9253081,9.93807792 95.9174703,9.57938928 95.9003119,9.22199089 C97.5085037,8.04115591 98.8967318,6.57906739 100,4.90417962 Z" id="Shape"></path>
                <g id="telegram-(2)">
                    <path d="M15.1515152,31.2121212 C13.969697,31.2121212 14.1818182,30.7575758 13.7575758,29.6363636 L10.3030303,18.2424242 L31.7575758,4.84848485 L34.2727273,5.51515152 L32.1818182,11.2121212 L15.1515152,31.2121212 Z" id="path2993" opacity="0.637284873"></path>
                    <path d="M15.1515152,31.2121212 C16.0606061,31.2121212 16.4545455,30.7878788 16.969697,30.3030303 C17.7575758,29.5454545 27.8787879,19.6969697 27.8787879,19.6969697 L21.6666667,18.1818182 L15.9090909,21.8181818 L15.1515152,30.9090909 L15.1515152,31.2121212 Z" id="path2989"></path>
                    <path d="M15.7575758,21.9393939 L30.4242424,32.7575758 C32.0909091,33.6666667 33.3030303,33.2121212 33.7272727,31.2121212 L39.6969697,3.09090909 C40.3030303,0.636363636 38.7575758,-0.454545455 37.1515152,0.272727273 L2.12121212,13.7878788 C-0.272727273,14.7575758 -0.242424242,16.0909091 1.6969697,16.6666667 L10.6969697,19.4848485 L31.5151515,6.36363636 C32.4848485,5.75757576 33.3939394,6.09090909 32.6666667,6.75757576 L15.7575758,21.9393939 Z" id="path2991"></path>
                </g>
            </g>
        </g>
    </g>
</svg>

<svg width="100" height="34" viewBox="0 0 100 34" xmlns="http://www.w3.org/2000/svg"><title>Group 8</title><g fill="#1E9DF2" fill-rule="nonzero"><path d="M100 4.904a16.193 16.193 0 0 1-4.713 1.312 8.333 8.333 0 0 0 3.608-4.608 16.246 16.246 0 0 1-5.212 2.022A8.137 8.137 0 0 0 87.693 1c-4.53 0-8.204 3.728-8.204 8.33 0 .652.072 1.288.211 1.899-6.82-.348-12.866-3.664-16.913-8.703a8.386 8.386 0 0 0-1.11 4.188 8.36 8.36 0 0 0 3.65 6.932 8.076 8.076 0 0 1-3.718-1.041v.105c0 4.036 2.828 7.402 6.582 8.168a8.208 8.208 0 0 1-3.707.145c1.045 3.308 4.075 5.716 7.665 5.784A16.307 16.307 0 0 1 60 30.256 22.971 22.971 0 0 0 72.578 34c15.093 0 23.347-12.693 23.347-23.7 0-.362-.008-.72-.025-1.078a16.862 16.862 0 0 0 4.1-4.318z"/><path d="M15.152 31.212c-1.182 0-.97-.454-1.394-1.576l-3.455-11.394L31.758 4.848l2.515.667-2.091 5.697-17.03 20z" opacity=".637"/><path d="M15.152 31.212c.909 0 1.303-.424 1.818-.909.788-.758 10.909-10.606 10.909-10.606l-6.212-1.515-5.758 3.636-.757 9.091v.303z"/><path d="M15.758 21.94l14.666 10.818c1.667.909 2.879.454 3.303-1.546l5.97-28.121c.606-2.455-.94-3.546-2.545-2.818L2.122 13.788c-2.395.97-2.364 2.303-.425 2.879l9 2.818L31.515 6.364c.97-.606 1.879-.273 1.152.394l-16.91 15.181z"/></g></svg>
